X: 1
T: Marni Swanson of the Grey Coast
C: Andy Thorburn 1995
O: Evanton
R: air, waltz
Z: 2005 John Chambers <jc:trillian.mit.edu>
M: C
L: 1/8
K: G
|: "G"GBdBBG | "Em"AGGEED |  "G"GBdBBG | "C"edefg2 \
|  "G"GBdBBG | "Em"AGGEED |  "C"G2F"D"G2A | "G"G6 :|
| "Bm"Bddffg |  "C"fddeBA |  "Bm"Bddffg | "C"fdBe2d \
| "Bm"Bddffg |  "C"fddeBA |  "C"e2d"Bm"B2A | "Am"e2dB2A |
| "Bm"Bdfffg |  "C"fdBeBA | "Bm"Bdfffg | "C"fdBe2d \
| "Bm"Bddffg |  "C"fdBeBA |  "C"e2d"Bm"B2A | "Am"G2E"Bm"E2D | "C"E6 | "D"D6 |]
